X:629
T: Taohuangge
N: C2150
O: China,Hubei Tianmen
S: I, 401]
R: Wuge, Dengdiao, Sanbanggu]
M: 2/4
L: 1/16
K: G
dBBABABd | ABA2z4 | ABAGE2GE | ABD2z4 |
EDEGABAG | EDEGD2D2 | EGDEG4 | GABdA3B | E2GDE3D | D8

@@@ Tune index: 7184
